X:130 
T:Miller's Daughter 2 (reel), The  
F:file ID: cre.5/130mill_d2
B:CRE5.185ii (InÃÂÃÂÃÂÃÂ­on an Mhuilleora)
M:4/4
Q:180
R:reel
K:G
(3gfe|dB~B2 GBdB|eBdB A2ge|dB~B2 GBdB|cBAc BGGe|
dB~B2 GBdB|eBdB A2FG|AccB cdeg|fdef g2:|
ef|gefd ecdB|gedB A2ef|gefd ecdB|cdef gfge|
dgfg afge|dBGB AGAB|GccB cdeg|fdef g2:|


%%%

